!!!COM: Anon.
!!!OTL: O/ meu pai que Deus me deu
!!!OTL: Romanceiro Folclorico do Brasil
!!!CNT: Brasil
!!!OCY: Brasil
!!!ODT: <1971///
!!!PSR: Irmaos Vitale
!!!PSP: Sao Paulo, Brasil
!!!PDT: 1949///
!!!PPE: Rossini Tavares de Lima
!!!PPG: pages 34-35
!! Romance: Antoniho
!! Place: Caxambu, Minas Gerais, Brasil
**kern
*clefG2
*k[b-e-a-]
*M3/4
*MM100
8.e-
16d
=
4c
4e-
8d
8c
=
4d
4G
8g
8cc
=
4g
4e-
8c
8e-
=
2g
4g
=
4cc
8f
8g
8a-
8b-
=
4g
4e-
8g
8a-
=
4g
4f
8e-
8d
=
2c
==
*-
